static/assets/images/protocols/lodestar-finance-mono.svg

<svg xmlns="http://www.w3.org/2000/svg" fill="none" viewBox="0 0 408 408"><path fill="#000" d="M203.989 53.247c5.035 19.172 12.639 37.332 22.508 53.915a412 412 0 0 1 10.941-8.291C220.511 69.77 210.784 35.977 210.784 0h-13.59c0 35.977-9.727 69.77-26.654 98.87 3.539 2.589 7.2 5.38 10.941 8.292 9.868-16.583 17.473-34.743 22.508-53.915M309.13 170.542a146 146 0 0 1-11.628-7.28c-4.086-2.73-7.948-5.642-11.77-8.695a160 160 0 0 1-10.476-8.838 231 231 0 0 1-12.983-12.983c-3.539 2.507-7.199 5.298-10.88 8.23 4.894 5.501 10.132 10.739 15.633 15.572 3.336 3.054 6.794 6.047 10.395 8.838 3.801 3.054 7.745 5.925 11.769 8.696 3.802 2.588 7.685 5.035 11.628 7.401a210.7 210.7 0 0 0 53.914 22.509c-19.171 5.035-37.27 12.639-53.914 22.508-3.943 2.387-7.826 4.834-11.628 7.402-4.004 2.79-7.948 5.641-11.769 8.695-3.601 2.792-7.079 5.784-10.395 8.838-5.501 4.833-10.739 10.071-15.633 15.572a261 261 0 0 0 10.88 8.23 232 232 0 0 1 12.983-12.983 160 160 0 0 1 10.476-8.838c3.802-3.053 7.684-5.985 11.77-8.695a146 146 0 0 1 11.628-7.28c29.1-16.927 62.833-26.655 98.87-26.655v-13.589c-36.037 0-69.77-9.728-98.87-26.655M110.498 244.721c4.085 2.73 7.948 5.642 11.77 8.695a160 160 0 0 1 10.476 8.838 232 232 0 0 1 12.983 12.983c3.539-2.507 7.199-5.298 10.88-8.23-4.894-5.501-10.132-10.739-15.633-15.572-3.336-3.054-6.794-6.046-10.395-8.838-3.801-3.054-7.745-5.925-11.769-8.695-3.802-2.589-7.685-5.036-11.628-7.402a210.7 210.7 0 0 0-53.915-22.508c19.172-5.036 37.271-12.64 53.915-22.509 3.943-2.386 7.826-4.833 11.628-7.401 4.004-2.791 7.947-5.642 11.769-8.696 3.601-2.791 7.079-5.784 10.395-8.838 5.501-4.833 10.739-10.071 15.633-15.572a261 261 0 0 0-10.88-8.23 231 231 0 0 1-12.983 12.983 160 160 0 0 1-10.476 8.838c-3.802 3.053-7.685 5.985-11.77 8.695a146 146 0 0 1-11.628 7.28C69.77 187.469 36.037 197.197 0 197.197v13.589c36.037 0 69.77 9.728 98.87 26.655a146 146 0 0 1 11.628 7.28M203.989 354.753c-5.035-19.171-12.64-37.332-22.508-53.915a411 411 0 0 1-10.941 8.291c16.927 29.102 26.654 62.894 26.654 98.871h13.59c0-35.977 9.727-69.769 26.654-98.871-3.54-2.588-7.2-5.379-10.941-8.291-9.869 16.583-17.473 34.744-22.508 53.915"/><path fill="#000" d="M305.306 255.883a161 161 0 0 0-11.77 8.777c16.866 25.36 24.611 45.482 28.009 56.908-11.426-3.397-31.548-11.143-56.908-28.008a522 522 0 0 1-11.223-7.827 311 311 0 0 1-10.819-8.291 516 516 0 0 1-10.537-8.697 621 621 0 0 1-7.745-6.875h-.06c-3.256-2.993-6.532-6.047-9.87-9.323l38.141-38.14a440 440 0 0 1 9.322 9.868h.061c2.306 2.649 4.631 5.237 6.795 7.827a175 175 0 0 1 11.77-8.697c-2.589-3.054-5.298-6.188-8.292-9.384-2.932-3.194-5.985-6.673-9.241-9.99 3.256-3.336 6.33-6.794 9.241-9.99 2.994-3.195 5.703-6.33 8.292-9.383a194 194 0 0 1-11.77-8.696c-2.184 2.588-4.489 5.177-6.795 7.827h-.061c-2.931 3.195-6.046 6.532-9.322 9.868l-38.141-38.141a414 414 0 0 1 9.87-9.322h.06a630 630 0 0 1 7.745-6.877c3.6-3.053 7.139-5.985 10.537-8.695 3.74-2.993 7.28-5.703 10.819-8.291a515 515 0 0 1 11.223-7.827c25.36-16.866 45.482-24.612 56.908-28.009-3.398 11.426-11.143 31.548-28.009 56.907 3.802 3.135 7.746 6.048 11.77 8.777 29.303-43.58 33.044-72.964 33.247-74.602l1.091-9.182-9.181 1.092c-1.637.203-31.001 3.944-74.602 33.248-3.6 2.386-7.341 4.953-11.143 7.825-3.539 2.589-7.139 5.299-10.82 8.292a282 282 0 0 0-10.617 8.777c-3.054 2.507-6.187 5.299-9.322 8.23h-.061c-3.256 2.933-6.532 6.048-9.869 9.324l-.061-.061-.061.061c-3.336-3.256-6.592-6.391-9.868-9.324h-.061c-3.134-2.931-6.248-5.703-9.322-8.23a270 270 0 0 0-10.617-8.777c-3.681-2.993-7.28-5.703-10.82-8.292-3.801-2.851-7.543-5.439-11.142-7.825-43.581-29.304-72.965-33.045-74.603-33.248l-9.181-1.092 1.092 9.182c.202 1.638 3.943 31.002 33.246 74.602a159 159 0 0 0 11.77-8.777c-16.866-25.359-24.611-45.48-28.009-56.907 11.426 3.397 31.548 11.143 56.908 28.009a518 518 0 0 1 11.224 7.827 314 314 0 0 1 10.819 8.291 516 516 0 0 1 10.536 8.695 623 623 0 0 1 7.745 6.877h.061c3.256 2.993 6.532 6.046 9.869 9.322l-38.141 38.141a445 445 0 0 1-9.323-9.868h-.061c-2.304-2.65-4.63-5.239-6.794-7.827a174 174 0 0 1-11.769 8.696c2.588 3.053 5.298 6.188 8.291 9.383 2.931 3.196 5.985 6.674 9.242 9.99-3.257 3.337-6.33 6.796-9.242 9.99-2.993 3.196-5.703 6.33-8.291 9.384a194 194 0 0 1 11.769 8.697c2.184-2.59 4.49-5.178 6.794-7.827h.061c2.933-3.195 6.047-6.532 9.323-9.868l38.141 38.14a412 412 0 0 1-9.869 9.323h-.061a614 614 0 0 1-7.745 6.875 455 455 0 0 1-10.536 8.697 314 314 0 0 1-10.819 8.291 525 525 0 0 1-11.224 7.827c-25.36 16.865-45.482 24.611-56.908 28.008 3.398-11.426 11.143-31.548 28.009-56.908-3.802-3.134-7.745-6.046-11.77-8.777-29.303 43.582-33.044 72.966-33.246 74.604l-1.092 9.181 9.181-1.092c1.638-.202 31.002-3.944 74.603-33.247 3.599-2.386 7.341-4.955 11.142-7.827 3.54-2.588 7.139-5.298 10.82-8.291a283 283 0 0 0 10.617-8.776c3.053-2.508 6.188-5.299 9.322-8.232h.061c3.256-2.931 6.532-6.046 9.868-9.322l.061.061.061-.061c3.337 3.256 6.593 6.391 9.869 9.322h.061c3.135 2.933 6.248 5.703 9.322 8.232 3.6 3.134 7.139 6.046 10.617 8.776 3.681 2.993 7.281 5.703 10.82 8.291 3.802 2.852 7.543 5.441 11.143 7.827 43.58 29.303 72.965 33.045 74.602 33.247l9.181 1.092-1.091-9.181c-.203-1.638-3.944-31.002-33.247-74.604m-101.317-13.589-38.302-38.302 38.302-38.304 38.302 38.304z"/></svg>

<svg width="408" height="408" viewBox="0 0 408 408" fill="none" xmlns="http://www.w3.org/2000/svg">
<path d="M203.989 53.2474C209.024 72.4189 216.628 90.5793 226.497 107.162C230.238 104.23 233.898 101.459 237.438 98.8707C220.511 69.7697 210.784 35.9769 210.784 0H197.194C197.194 35.9769 187.467 69.7697 170.54 98.8707C174.079 101.459 177.74 104.25 181.481 107.162C191.349 90.5793 198.954 72.4189 203.989 53.2474Z" fill="black"/>
<path d="M309.13 170.542C305.126 168.297 301.243 165.85 297.502 163.262C293.416 160.532 289.554 157.62 285.732 154.567C282.133 151.775 278.654 148.864 275.256 145.729C270.767 141.583 266.419 137.236 262.273 132.746C258.734 135.253 255.074 138.044 251.393 140.976C256.287 146.477 261.525 151.715 267.026 156.548C270.362 159.602 273.82 162.595 277.421 165.386C281.222 168.44 285.166 171.311 289.19 174.082C292.992 176.67 296.875 179.117 300.818 181.483C317.482 191.352 335.561 198.956 354.732 203.992C335.561 209.027 317.462 216.631 300.818 226.5C296.875 228.887 292.992 231.334 289.19 233.902C285.186 236.692 281.242 239.543 277.421 242.597C273.82 245.389 270.342 248.381 267.026 251.435C261.525 256.268 256.287 261.506 251.393 267.007C255.074 269.939 258.734 272.71 262.273 275.237C266.419 270.748 270.767 266.4 275.256 262.254C278.654 259.119 282.133 256.208 285.732 253.416C289.534 250.363 293.416 247.431 297.502 244.721C301.243 242.133 305.126 239.686 309.13 237.441C338.23 220.514 371.963 210.786 408 210.786V197.197C371.963 197.197 338.23 187.469 309.13 170.542Z" fill="black"/>
<path d="M110.498 244.721C114.583 247.451 118.446 250.363 122.268 253.416C125.867 256.208 129.346 259.119 132.744 262.254C137.233 266.4 141.581 270.748 145.727 275.237C149.266 272.73 152.926 269.939 156.607 267.007C151.713 261.506 146.475 256.268 140.974 251.435C137.638 248.381 134.18 245.389 130.579 242.597C126.778 239.543 122.834 236.672 118.81 233.902C115.008 231.313 111.125 228.866 107.182 226.5C90.5179 216.631 72.4387 209.027 53.2672 203.992C72.4387 198.956 90.5381 191.352 107.182 181.483C111.125 179.097 115.008 176.65 118.81 174.082C122.814 171.291 126.757 168.44 130.579 165.386C134.18 162.595 137.658 159.602 140.974 156.548C146.475 151.715 151.713 146.477 156.607 140.976C152.926 138.044 149.266 135.273 145.727 132.746C141.581 137.236 137.233 141.583 132.744 145.729C129.346 148.864 125.867 151.775 122.268 154.567C118.466 157.62 114.583 160.552 110.498 163.262C106.757 165.85 102.874 168.297 98.8699 170.542C69.7691 187.469 36.0373 197.197 0 197.197V210.786C36.0373 210.786 69.7691 220.514 98.8699 237.441C102.874 239.686 106.757 242.133 110.498 244.721Z" fill="black"/>
<path d="M203.989 354.753C198.954 335.582 191.349 317.421 181.481 300.838C177.74 303.771 174.079 306.541 170.54 309.129C187.467 338.231 197.194 372.023 197.194 408H210.784C210.784 372.023 220.511 338.231 237.438 309.129C233.898 306.541 230.238 303.75 226.497 300.838C216.628 317.421 209.024 335.582 203.989 354.753Z" fill="black"/>
<path d="M305.306 255.883C301.302 258.594 297.358 261.526 293.536 264.66C310.402 290.02 318.147 310.142 321.545 321.568C310.119 318.171 289.997 310.425 264.637 293.56C261.038 291.113 257.296 288.523 253.414 285.733C249.875 283.145 246.335 280.435 242.595 277.442C239.197 274.711 235.658 271.799 232.058 268.745C229.551 266.562 226.962 264.256 224.313 261.87H224.253C220.997 258.877 217.721 255.823 214.383 252.547L252.524 214.407C255.78 217.743 258.915 221.08 261.846 224.275H261.907C264.213 226.924 266.538 229.512 268.702 232.102C272.504 229.048 276.448 226.115 280.472 223.405C277.883 220.351 275.174 217.217 272.18 214.021C269.248 210.827 266.195 207.348 262.939 204.031C266.195 200.695 269.269 197.237 272.18 194.041C275.174 190.846 277.883 187.711 280.472 184.658C276.467 181.928 272.525 179.016 268.702 175.962C266.518 178.55 264.213 181.139 261.907 183.789H261.846C258.915 186.984 255.8 190.321 252.524 193.657L214.383 155.516C217.721 152.261 220.976 149.187 224.253 146.194H224.313C226.962 143.807 229.551 141.502 232.058 139.317C235.658 136.264 239.197 133.332 242.595 130.622C246.335 127.629 249.875 124.919 253.414 122.331C257.296 119.539 261.038 116.951 264.637 114.504C289.997 97.6379 310.119 89.8925 321.545 86.495C318.147 97.9211 310.402 118.043 293.536 143.402C297.338 146.537 301.282 149.45 305.306 152.179C334.609 108.599 338.35 79.2147 338.553 77.5766L339.644 68.3954L330.463 69.4874C328.826 69.6897 299.462 73.4309 255.861 102.735C252.261 105.121 248.52 107.688 244.718 110.56C241.179 113.149 237.579 115.859 233.898 118.852C230.44 121.561 226.902 124.494 223.281 127.629C220.227 130.136 217.094 132.928 213.959 135.859H213.898C210.642 138.792 207.366 141.907 204.029 145.183L203.968 145.122L203.907 145.183C200.571 141.927 197.315 138.792 194.039 135.859H193.978C190.844 132.928 187.73 130.156 184.656 127.629C181.056 124.494 177.517 121.582 174.039 118.852C170.358 115.859 166.759 113.149 163.219 110.56C159.418 107.709 155.676 105.121 152.077 102.735C108.496 73.4309 79.1121 69.6897 77.474 69.4874L68.2928 68.3954L69.3848 77.5766C69.5872 79.2147 73.3284 108.579 102.631 152.179C106.636 149.47 110.579 146.537 114.401 143.402C97.5352 118.043 89.7898 97.9211 86.3924 86.495C97.8183 89.8925 117.94 97.6379 143.3 114.504C146.899 116.951 150.641 119.539 154.524 122.331C158.062 124.919 161.601 127.629 165.343 130.622C168.74 133.352 172.28 136.264 175.879 139.317C178.387 141.502 180.975 143.807 183.624 146.194H183.685C186.941 149.187 190.217 152.24 193.554 155.516L155.413 193.657C152.157 190.321 149.023 186.984 146.09 183.789H146.029C143.725 181.139 141.399 178.55 139.235 175.962C135.433 179.016 131.49 181.949 127.466 184.658C130.054 187.711 132.764 190.846 135.757 194.041C138.688 197.237 141.742 200.715 144.999 204.031C141.742 207.368 138.669 210.827 135.757 214.021C132.764 217.217 130.054 220.351 127.466 223.405C131.469 226.135 135.413 229.048 139.235 232.102C141.419 229.512 143.725 226.924 146.029 224.275H146.09C149.023 221.08 152.137 217.743 155.413 214.407L193.554 252.547C190.217 255.803 186.961 258.877 183.685 261.87H183.624C180.975 264.256 178.387 266.562 175.879 268.745C172.28 271.799 168.74 274.732 165.343 277.442C161.601 280.435 158.062 283.145 154.524 285.733C150.641 288.523 146.899 291.113 143.3 293.56C117.94 310.425 97.8183 318.171 86.3924 321.568C89.7898 310.142 97.5352 290.02 114.401 264.66C110.599 261.526 106.656 258.614 102.631 255.883C73.3284 299.465 69.5872 328.849 69.3848 330.487L68.2928 339.668L77.474 338.576C79.1121 338.374 108.476 334.632 152.077 305.329C155.676 302.943 159.418 300.374 163.219 297.502C166.759 294.914 170.358 292.204 174.039 289.211C177.497 286.501 181.036 283.569 184.656 280.435C187.709 277.927 190.844 275.136 193.978 272.203H194.039C197.295 269.272 200.571 266.157 203.907 262.881L203.968 262.942L204.029 262.881C207.366 266.137 210.622 269.272 213.898 272.203H213.959C217.094 275.136 220.207 277.906 223.281 280.435C226.881 283.569 230.42 286.481 233.898 289.211C237.579 292.204 241.179 294.914 244.718 297.502C248.52 300.354 252.261 302.943 255.861 305.329C299.441 334.632 328.826 338.374 330.463 338.576L339.644 339.668L338.553 330.487C338.35 328.849 334.609 299.485 305.306 255.883ZM203.989 242.294L165.687 203.992L203.989 165.688L242.291 203.992L203.989 242.294Z" fill="black"/>
</svg>
